icons/modern/peach.svg

<svg width="32" height="32" viewBox="0 0 32 32" fill="none" xmlns="http://www.w3.org/2000/svg">
<path d="M11.1201 2.73999H5.56006C5.56006 5.74999 8.00006 8.19999 11.0201 8.19999H16.5801C16.5701 5.17999 14.1301 2.73999 11.1201 2.73999Z" fill="url(#paint0_linear_18_29474)"/>
<g filter="url(#filter0_f_18_29474)">
<path d="M11.02 7.69999C8.44606 7.69999 6.33562 5.74064 6.08496 3.23999H11.12C13.6844 3.23999 15.7954 5.19071 16.0535 7.69999H11.02Z" fill="url(#paint1_linear_18_29474)"/>
</g>
<g filter="url(#filter1_f_18_29474)">
<path d="M6.65942 3.09416L11.0381 3.09412C13.8742 3.09412 16.2523 5.19679 16.2617 8.04229C14.2667 2.86322 11.5677 3.60777 6.65942 3.09416Z" fill="url(#paint2_linear_18_29474)"/>
</g>
<path d="M22.0201 2.73999H27.5801C27.5801 5.74999 25.1401 8.19999 22.1201 8.19999H16.5601C16.5601 5.17999 19.0001 2.73999 22.0201 2.73999Z" fill="url(#paint3_linear_18_29474)"/>
<g filter="url(#filter2_f_18_29474)">
<path d="M22.1201 7.69999H17.0848C17.3347 5.19186 19.445 3.23999 22.0201 3.23999H27.0551C26.8045 5.74064 24.694 7.69999 22.1201 7.69999Z" fill="url(#paint4_linear_18_29474)"/>
</g>
<g filter="url(#filter3_f_18_29474)">
<path d="M27.0553 3H22.0248C19.2924 3 17.0848 5.20761 17.0848 7.93998C19.6827 3.59843 20.2717 3.6252 27.0553 3Z" fill="url(#paint5_linear_18_29474)"/>
</g>
<g filter="url(#filter4_f_18_29474)">
<path d="M27.4353 2.94592C27.4353 5.68308 24.7316 7.95289 22.0278 7.95289H19.4918C17.9342 8.08333 16.7872 7.95289 16.7872 7.95289H19.4918C22.1773 7.72799 26.0832 6.72756 27.4353 2.94592Z" fill="url(#paint6_linear_18_29474)"/>
</g>
<path d="M16.5548 7.53031C15.3215 6.98371 13.9564 6.67993 12.5201 6.67993C7.02005 6.67993 2.55005 11.1399 2.55005 16.6499C2.55005 18.8999 3.30005 21.0199 4.55005 22.6799C6.84005 25.7499 11.0401 28.4699 11.0401 28.4699C13.1401 29.8799 14.7401 30.6799 16.9001 30.6799C19.2401 30.6799 21.3901 29.8999 23.2401 28.2499C23.2401 28.2499 26.0201 25.9499 28.5401 22.6699H28.538C29.807 20.9972 30.56 18.9115 30.56 16.6499C30.56 11.1437 26.0963 6.67993 20.59 6.67993C19.1537 6.67993 17.7884 6.98363 16.5548 7.53031Z" fill="url(#paint7_radial_18_29474)"/>
<path d="M16.5548 7.53031C15.3215 6.98371 13.9564 6.67993 12.5201 6.67993C7.02005 6.67993 2.55005 11.1399 2.55005 16.6499C2.55005 18.8999 3.30005 21.0199 4.55005 22.6799C6.84005 25.7499 11.0401 28.4699 11.0401 28.4699C13.1401 29.8799 14.7401 30.6799 16.9001 30.6799C19.2401 30.6799 21.3901 29.8999 23.2401 28.2499C23.2401 28.2499 26.0201 25.9499 28.5401 22.6699H28.538C29.807 20.9972 30.56 18.9115 30.56 16.6499C30.56 11.1437 26.0963 6.67993 20.59 6.67993C19.1537 6.67993 17.7884 6.98363 16.5548 7.53031Z" fill="url(#paint8_radial_18_29474)"/>
<path d="M16.5548 7.53031C15.3215 6.98371 13.9564 6.67993 12.5201 6.67993C7.02005 6.67993 2.55005 11.1399 2.55005 16.6499C2.55005 18.8999 3.30005 21.0199 4.55005 22.6799C6.84005 25.7499 11.0401 28.4699 11.0401 28.4699C13.1401 29.8799 14.7401 30.6799 16.9001 30.6799C19.2401 30.6799 21.3901 29.8999 23.2401 28.2499C23.2401 28.2499 26.0201 25.9499 28.5401 22.6699H28.538C29.807 20.9972 30.56 18.9115 30.56 16.6499C30.56 11.1437 26.0963 6.67993 20.59 6.67993C19.1537 6.67993 17.7884 6.98363 16.5548 7.53031Z" fill="url(#paint9_radial_18_29474)"/>
<g filter="url(#filter5_f_18_29474)">
<path d="M16.5586 7.53516C19.6531 7.0002 21.8721 6.75998 24.613 8.07362C23.2657 10.5811 23.2912 15.5204 23.4219 18.1999C23.4863 18.7801 23.5294 19.3906 23.5483 20.0328C23.5483 20.0328 23.4761 19.3104 23.4219 18.1999C22.443 9.37067 16.5586 7.53516 16.5586 7.53516Z" fill="url(#paint10_linear_18_29474)"/>
</g>
<g filter="url(#filter6_f_18_29474)">
<path d="M16.5586 7.53504C19.6531 7.00007 21.8721 6.75986 24.613 8.0735C23.2657 10.5809 23.2912 15.5203 23.4219 18.1998C23.4863 18.78 23.5294 19.3905 23.5483 20.0326C23.5483 20.0326 23.4761 19.3103 23.4219 18.1998C22.443 9.37054 16.5586 7.53504 16.5586 7.53504Z" fill="url(#paint11_linear_18_29474)" fill-opacity="0.5"/>
</g>
<g filter="url(#filter7_f_18_29474)">
<path d="M4.1302 17.5167C3.41487 12.0578 6.19955 10.8697 7.5743 12.2732C8.94905 13.6767 5.14665 18.3825 12.3542 26.1679C12.3542 26.1679 4.84553 22.9755 4.1302 17.5167Z" fill="url(#paint12_linear_18_29474)"/>
</g>
<defs>
<filter id="filter0_f_18_29474" x="5.58496" y="2.73999" width="10.9686" height="5.46002" filterUnits="userSpaceOnUse" color-interpolation-filters="sRGB">
<feFlood flood-opacity="0" result="BackgroundImageFix"/>
<feBlend mode="normal" in="SourceGraphic" in2="BackgroundImageFix" result="shape"/>
<feGaussianBlur stdDeviation="0.25" result="effect1_foregroundBlur_18_29474"/>
</filter>
<filter id="filter1_f_18_29474" x="6.15942" y="2.59412" width="10.6023" height="5.94818" filterUnits="userSpaceOnUse" color-interpolation-filters="sRGB">
<feFlood flood-opacity="0" result="BackgroundImageFix"/>
<feBlend mode="normal" in="SourceGraphic" in2="BackgroundImageFix" result="shape"/>
<feGaussianBlur stdDeviation="0.25" result="effect1_foregroundBlur_18_29474"/>
</filter>
<filter id="filter2_f_18_29474" x="16.5848" y="2.73999" width="10.9703" height="5.46002" filterUnits="userSpaceOnUse" color-interpolation-filters="sRGB">
<feFlood flood-opacity="0" result="BackgroundImageFix"/>
<feBlend mode="normal" in="SourceGraphic" in2="BackgroundImageFix" result="shape"/>
<feGaussianBlur stdDeviation="0.25" result="effect1_foregroundBlur_18_29474"/>
</filter>
<filter id="filter3_f_18_29474" x="16.5848" y="2.5" width="10.9705" height="5.94" filterUnits="userSpaceOnUse" color-interpolation-filters="sRGB">
<feFlood flood-opacity="0" result="BackgroundImageFix"/>
<feBlend mode="normal" in="SourceGraphic" in2="BackgroundImageFix" result="shape"/>
<feGaussianBlur stdDeviation="0.25" result="effect1_foregroundBlur_18_29474"/>
</filter>
<filter id="filter4_f_18_29474" x="16.2872" y="2.44592" width="11.6481" height="6.06494" filterUnits="userSpaceOnUse" color-interpolation-filters="sRGB">
<feFlood flood-opacity="0" result="BackgroundImageFix"/>
<feBlend mode="normal" in="SourceGraphic" in2="BackgroundImageFix" result="shape"/>
<feGaussianBlur stdDeviation="0.25" result="effect1_foregroundBlur_18_29474"/>
</filter>
<filter id="filter5_f_18_29474" x="15.9586" y="6.50657" width="9.25432" height="14.1262" filterUnits="userSpaceOnUse" color-interpolation-filters="sRGB">
<feFlood flood-opacity="0" result="BackgroundImageFix"/>
<feBlend mode="normal" in="SourceGraphic" in2="BackgroundImageFix" result="shape"/>
<feGaussianBlur stdDeviation="0.3" result="effect1_foregroundBlur_18_29474"/>
</filter>
<filter id="filter6_f_18_29474" x="15.9586" y="6.50645" width="9.25432" height="14.1262" filterUnits="userSpaceOnUse" color-interpolation-filters="sRGB">
<feFlood flood-opacity="0" result="BackgroundImageFix"/>
<feBlend mode="normal" in="SourceGraphic" in2="BackgroundImageFix" result="shape"/>
<feGaussianBlur stdDeviation="0.3" result="effect1_foregroundBlur_18_29474"/>
</filter>
<filter id="filter7_f_18_29474" x="2.01465" y="9.73273" width="12.3395" height="18.4352" filterUnits="userSpaceOnUse" color-interpolation-filters="sRGB">
<feFlood flood-opacity="0" result="BackgroundImageFix"/>
<feBlend mode="normal" in="SourceGraphic" in2="BackgroundImageFix" result="shape"/>
<feGaussianBlur stdDeviation="1" result="effect1_foregroundBlur_18_29474"/>
</filter>
<linearGradient id="paint0_linear_18_29474" x1="6.58052" y1="6.87732" x2="16.1261" y2="6.70228" gradientUnits="userSpaceOnUse">
<stop stop-color="#86B528"/>
<stop offset="1" stop-color="#A0CB40"/>
</linearGradient>
<linearGradient id="paint1_linear_18_29474" x1="6.58052" y1="6.87732" x2="16.1261" y2="6.70228" gradientUnits="userSpaceOnUse">
<stop stop-color="#87B327"/>
<stop offset="1" stop-color="#B6D740"/>
</linearGradient>
<linearGradient id="paint2_linear_18_29474" x1="6.65942" y1="3.09412" x2="16.2617" y2="7.20394" gradientUnits="userSpaceOnUse">
<stop offset="0.203125" stop-color="#CCED63" stop-opacity="0"/>
<stop offset="0.494792" stop-color="#CCED63"/>
<stop offset="0.885417" stop-color="#CCED63" stop-opacity="0"/>
</linearGradient>
<linearGradient id="paint3_linear_18_29474" x1="26.5509" y1="6.87402" x2="17.67" y2="4.00611" gradientUnits="userSpaceOnUse">
<stop stop-color="#B3D944"/>
<stop offset="1" stop-color="#83B337"/>
</linearGradient>
<linearGradient id="paint4_linear_18_29474" x1="26.5509" y1="6.87402" x2="17.67" y2="4.00611" gradientUnits="userSpaceOnUse">
<stop stop-color="#C0E148"/>
<stop offset="1" stop-color="#90BA2A"/>
</linearGradient>
<linearGradient id="paint5_linear_18_29474" x1="17.0848" y1="7.37342" x2="27.0553" y2="3" gradientUnits="userSpaceOnUse">
<stop offset="0.203125" stop-color="#ADD558" stop-opacity="0"/>
<stop offset="0.739583" stop-color="#B5DF5A"/>
<stop offset="1" stop-color="#B5DF5A" stop-opacity="0.5"/>
</linearGradient>
<linearGradient id="paint6_linear_18_29474" x1="27.6022" y1="2.94592" x2="23.4298" y2="8.28669" gradientUnits="userSpaceOnUse">
<stop stop-color="#D2F168"/>
<stop offset="0.578377" stop-color="#D2F168" stop-opacity="0"/>
</linearGradient>
<radialGradient id="paint7_radial_18_29474" cx="0" cy="0" r="1" gradientUnits="userSpaceOnUse" gradientTransform="translate(10.1492 45.6553) rotate(-66.1662) scale(34.1728 34.1728)">
<stop offset="0.46875" stop-color="#FF458F"/>
<stop offset="0.828125" stop-color="#FF5D5B"/>
<stop offset="1" stop-color="#FF8E2D"/>
</radialGradient>
<radialGradient id="paint8_radial_18_29474" cx="0" cy="0" r="1" gradientUnits="userSpaceOnUse" gradientTransform="translate(2.55005 7.25188) rotate(44.2544) scale(13.4871 15.7406)">
<stop stop-color="#DB9263"/>
<stop offset="1" stop-color="#DB9263" stop-opacity="0"/>
</radialGradient>
<radialGradient id="paint9_radial_18_29474" cx="0" cy="0" r="1" gradientUnits="userSpaceOnUse" gradientTransform="translate(22.2404 12.6792) rotate(107.528) scale(18.8772 22.0313)">
<stop stop-color="#FFC98A"/>
<stop offset="1" stop-color="#FF6700" stop-opacity="0"/>
</radialGradient>
<linearGradient id="paint10_linear_18_29474" x1="24.5161" y1="8.51408" x2="17.9715" y2="11.051" gradientUnits="userSpaceOnUse">
<stop stop-color="#FFAD60" stop-opacity="0.4"/>
<stop offset="1" stop-color="#FF8704"/>
</linearGradient>
<linearGradient id="paint11_linear_18_29474" x1="24.5161" y1="8.51395" x2="17.9715" y2="11.0509" gradientUnits="userSpaceOnUse">
<stop stop-color="#FFAD60" stop-opacity="0.4"/>
<stop offset="1" stop-color="#FF8704"/>
</linearGradient>
<linearGradient id="paint12_linear_18_29474" x1="8.1844" y1="11.7327" x2="8.1844" y2="26.1679" gradientUnits="userSpaceOnUse">
<stop stop-color="#FF9068" stop-opacity="0"/>
<stop offset="0.255208" stop-color="#FF9068" stop-opacity="0.6"/>
<stop offset="1" stop-color="#FF9068" stop-opacity="0"/>
</linearGradient>
</defs>
</svg>

<svg width="32" height="32" fill="none" xmlns="http://www.w3.org/2000/svg"><path d="M11.12 2.74H5.56a5.46 5.46 0 0 0 5.46 5.46h5.56c-.01-3.02-2.45-5.46-5.46-5.46Z" fill="url(#a)"/><g filter="url(#b)"><path d="M11.02 7.7a4.961 4.961 0 0 1-4.935-4.46h5.035a4.965 4.965 0 0 1 4.934 4.46H11.02Z" fill="url(#c)"/></g><g filter="url(#d)"><path d="M6.66 3.094h4.378c2.836 0 5.214 2.103 5.224 4.948-1.995-5.179-4.694-4.434-9.603-4.948Z" fill="url(#e)"/></g><path d="M22.02 2.74h5.56a5.46 5.46 0 0 1-5.46 5.46h-5.56c0-3.02 2.44-5.46 5.46-5.46Z" fill="url(#f)"/><g filter="url(#g)"><path d="M22.12 7.7h-5.035a4.954 4.954 0 0 1 4.935-4.46h5.035A4.961 4.961 0 0 1 22.12 7.7Z" fill="url(#h)"/></g><g filter="url(#i)"><path d="M27.055 3h-5.03a4.935 4.935 0 0 0-4.94 4.94c2.598-4.342 3.187-4.315 9.97-4.94Z" fill="url(#j)"/></g><g filter="url(#k)"><path d="M27.435 2.946c0 2.737-2.703 5.007-5.407 5.007h-2.536c-1.558.13-2.705 0-2.705 0h2.705c2.685-.225 6.591-1.225 7.943-5.007Z" fill="url(#l)"/></g><path d="M16.555 7.53a9.933 9.933 0 0 0-4.035-.85c-5.5 0-9.97 4.46-9.97 9.97 0 2.25.75 4.37 2 6.03 2.29 3.07 6.49 5.79 6.49 5.79 2.1 1.41 3.7 2.21 5.86 2.21 2.34 0 4.49-.78 6.34-2.43 0 0 2.78-2.3 5.3-5.58h-.002a9.926 9.926 0 0 0 2.022-6.02c0-5.506-4.464-9.97-9.97-9.97a9.935 9.935 0 0 0-4.035.85Z" fill="url(#m)"/><path d="M16.555 7.53a9.933 9.933 0 0 0-4.035-.85c-5.5 0-9.97 4.46-9.97 9.97 0 2.25.75 4.37 2 6.03 2.29 3.07 6.49 5.79 6.49 5.79 2.1 1.41 3.7 2.21 5.86 2.21 2.34 0 4.49-.78 6.34-2.43 0 0 2.78-2.3 5.3-5.58h-.002a9.926 9.926 0 0 0 2.022-6.02c0-5.506-4.464-9.97-9.97-9.97a9.935 9.935 0 0 0-4.035.85Z" fill="url(#n)"/><path d="M16.555 7.53a9.933 9.933 0 0 0-4.035-.85c-5.5 0-9.97 4.46-9.97 9.97 0 2.25.75 4.37 2 6.03 2.29 3.07 6.49 5.79 6.49 5.79 2.1 1.41 3.7 2.21 5.86 2.21 2.34 0 4.49-.78 6.34-2.43 0 0 2.78-2.3 5.3-5.58h-.002a9.926 9.926 0 0 0 2.022-6.02c0-5.506-4.464-9.97-9.97-9.97a9.935 9.935 0 0 0-4.035.85Z" fill="url(#o)"/><g filter="url(#p)"><path d="M16.559 7.535c3.094-.535 5.313-.775 8.054.539-1.347 2.507-1.322 7.446-1.191 10.126.064.58.107 1.19.126 1.833 0 0-.072-.723-.126-1.833-.979-8.83-6.863-10.665-6.863-10.665Z" fill="url(#q)"/></g><g filter="url(#r)"><path d="M16.559 7.535c3.094-.535 5.313-.775 8.054.538-1.347 2.508-1.322 7.447-1.191 10.127.064.58.107 1.19.126 1.833 0 0-.072-.723-.126-1.833-.979-8.83-6.863-10.665-6.863-10.665Z" fill="url(#s)" fill-opacity=".5"/></g><g filter="url(#t)"><path d="M4.13 17.517c-.715-5.46 2.07-6.647 3.444-5.244 1.375 1.404-2.427 6.11 4.78 13.895 0 0-7.508-3.192-8.224-8.651Z" fill="url(#u)"/></g><defs><linearGradient id="a" x1="6.581" y1="6.877" x2="16.126" y2="6.702" gradientUnits="userSpaceOnUse"><stop stop-color="#86B528"/><stop offset="1" stop-color="#A0CB40"/></linearGradient><linearGradient id="c" x1="6.581" y1="6.877" x2="16.126" y2="6.702" gradientUnits="userSpaceOnUse"><stop stop-color="#87B327"/><stop offset="1" stop-color="#B6D740"/></linearGradient><linearGradient id="e" x1="6.659" y1="3.094" x2="16.262" y2="7.204" gradientUnits="userSpaceOnUse"><stop offset=".203" stop-color="#CCED63" stop-opacity="0"/><stop offset=".495" stop-color="#CCED63"/><stop offset=".885" stop-color="#CCED63" stop-opacity="0"/></linearGradient><linearGradient id="f" x1="26.551" y1="6.874" x2="17.67" y2="4.006" gradientUnits="userSpaceOnUse"><stop stop-color="#B3D944"/><stop offset="1" stop-color="#83B337"/></linearGradient><linearGradient id="h" x1="26.551" y1="6.874" x2="17.67" y2="4.006" gradientUnits="userSpaceOnUse"><stop stop-color="#C0E148"/><stop offset="1" stop-color="#90BA2A"/></linearGradient><linearGradient id="j" x1="17.085" y1="7.373" x2="27.055" y2="3" gradientUnits="userSpaceOnUse"><stop offset=".203" stop-color="#ADD558" stop-opacity="0"/><stop offset=".74" stop-color="#B5DF5A"/><stop offset="1" stop-color="#B5DF5A" stop-opacity=".5"/></linearGradient><linearGradient id="l" x1="27.602" y1="2.946" x2="23.43" y2="8.287" gradientUnits="userSpaceOnUse"><stop stop-color="#D2F168"/><stop offset=".578" stop-color="#D2F168" stop-opacity="0"/></linearGradient><linearGradient id="q" x1="24.516" y1="8.514" x2="17.971" y2="11.051" gradientUnits="userSpaceOnUse"><stop stop-color="#FFAD60" stop-opacity=".4"/><stop offset="1" stop-color="#FF8704"/></linearGradient><linearGradient id="s" x1="24.516" y1="8.514" x2="17.971" y2="11.051" gradientUnits="userSpaceOnUse"><stop stop-color="#FFAD60" stop-opacity=".4"/><stop offset="1" stop-color="#FF8704"/></linearGradient><linearGradient id="u" x1="8.184" y1="11.733" x2="8.184" y2="26.168" gradientUnits="userSpaceOnUse"><stop stop-color="#FF9068" stop-opacity="0"/><stop offset=".255" stop-color="#FF9068" stop-opacity=".6"/><stop offset="1" stop-color="#FF9068" stop-opacity="0"/></linearGradient><filter id="b" x="5.585" y="2.74" width="10.969" height="5.46" filterUnits="userSpaceOnUse" color-interpolation-filters="sRGB"><feFlood flood-opacity="0" result="BackgroundImageFix"/><feBlend in="SourceGraphic" in2="BackgroundImageFix" result="shape"/><feGaussianBlur stdDeviation=".25" result="effect1_foregroundBlur_18_29474"/></filter><filter id="d" x="6.159" y="2.594" width="10.602" height="5.948" filterUnits="userSpaceOnUse" color-interpolation-filters="sRGB"><feFlood flood-opacity="0" result="BackgroundImageFix"/><feBlend in="SourceGraphic" in2="BackgroundImageFix" result="shape"/><feGaussianBlur stdDeviation=".25" result="effect1_foregroundBlur_18_29474"/></filter><filter id="g" x="16.585" y="2.74" width="10.97" height="5.46" filterUnits="userSpaceOnUse" color-interpolation-filters="sRGB"><feFlood flood-opacity="0" result="BackgroundImageFix"/><feBlend in="SourceGraphic" in2="BackgroundImageFix" result="shape"/><feGaussianBlur stdDeviation=".25" result="effect1_foregroundBlur_18_29474"/></filter><filter id="i" x="16.585" y="2.5" width="10.97" height="5.94" filterUnits="userSpaceOnUse" color-interpolation-filters="sRGB"><feFlood flood-opacity="0" result="BackgroundImageFix"/><feBlend in="SourceGraphic" in2="BackgroundImageFix" result="shape"/><feGaussianBlur stdDeviation=".25" result="effect1_foregroundBlur_18_29474"/></filter><filter id="k" x="16.287" y="2.446" width="11.648" height="6.065" filterUnits="userSpaceOnUse" color-interpolation-filters="sRGB"><feFlood flood-opacity="0" result="BackgroundImageFix"/><feBlend in="SourceGraphic" in2="BackgroundImageFix" result="shape"/><feGaussianBlur stdDeviation=".25" result="effect1_foregroundBlur_18_29474"/></filter><filter id="p" x="15.959" y="6.507" width="9.254" height="14.126" filterUnits="userSpaceOnUse" color-interpolation-filters="sRGB"><feFlood flood-opacity="0" result="BackgroundImageFix"/><feBlend in="SourceGraphic" in2="BackgroundImageFix" result="shape"/><feGaussianBlur stdDeviation=".3" result="effect1_foregroundBlur_18_29474"/></filter><filter id="r" x="15.959" y="6.506" width="9.254" height="14.126" filterUnits="userSpaceOnUse" color-interpolation-filters="sRGB"><feFlood flood-opacity="0" result="BackgroundImageFix"/><feBlend in="SourceGraphic" in2="BackgroundImageFix" result="shape"/><feGaussianBlur stdDeviation=".3" result="effect1_foregroundBlur_18_29474"/></filter><filter id="t" x="2.015" y="9.733" width="12.339" height="18.435" filterUnits="userSpaceOnUse" color-interpolation-filters="sRGB"><feFlood flood-opacity="0" result="BackgroundImageFix"/><feBlend in="SourceGraphic" in2="BackgroundImageFix" result="shape"/><feGaussianBlur stdDeviation="1" result="effect1_foregroundBlur_18_29474"/></filter><radialGradient id="m" cx="0" cy="0" r="1" gradientUnits="userSpaceOnUse" gradientTransform="rotate(-66.166 40.115 15.038) scale(34.1728)"><stop offset=".469" stop-color="#FF458F"/><stop offset=".828" stop-color="#FF5D5B"/><stop offset="1" stop-color="#FF8E2D"/></radialGradient><radialGradient id="n" cx="0" cy="0" r="1" gradientUnits="userSpaceOnUse" gradientTransform="matrix(9.66011 9.41191 -10.9845 11.27418 2.55 7.252)"><stop stop-color="#DB9263"/><stop offset="1" stop-color="#DB9263" stop-opacity="0"/></radialGradient><radialGradient id="o" cx="0" cy="0" r="1" gradientUnits="userSpaceOnUse" gradientTransform="matrix(-5.68528 18.00073 -21.00838 -6.6352 22.24 12.68)"><stop stop-color="#FFC98A"/><stop offset="1" stop-color="#FF6700" stop-opacity="0"/></radialGradient></defs></svg>
